svg/bag_suitcase_outline.svg

<svg xmlns="http://www.w3.org/2000/svg" viewBox="0 0 24 24"><path d="M9.5 18V9H8v9m4.75 0V9h-1.5v9M16 18V9h-1.5v9m2.53-12C18.11 6 19 6.88 19 8v11c0 1.13-.89 2-1.97 2 0 .58-.47 1-1.03 1-.5 0-1-.42-1-1H9c0 .58-.5 1-1 1-.56 0-1.03-.42-1.03-1C5.89 21 5 20.13 5 19V8c0-1.12.89-2 1.97-2H9V3c0-.58.46-1 1-1h4c.54 0 1 .42 1 1v3m-4.5-2.5V6h3V3.5M17.03 19V8H6.97v11"/></svg>

<?xml version="1.0" encoding="UTF-8"?><!DOCTYPE svg PUBLIC "-//W3C//DTD SVG 1.1//EN" "http://www.w3.org/Graphics/SVG/1.1/DTD/svg11.dtd"><svg xmlns="http://www.w3.org/2000/svg" xmlns:xlink="http://www.w3.org/1999/xlink" version="1.1" id="mdi-bag-suitcase-outline" width="24" height="24" viewBox="0 0 24 24"><path d="M9.5 18V9H8V18M12.75 18V9H11.25V18M16 18V9H14.5V18M17.03 6C18.11 6 19 6.88 19 8V19C19 20.13 18.11 21 17.03 21C17.03 21.58 16.56 22 16 22C15.5 22 15 21.58 15 21H9C9 21.58 8.5 22 8 22C7.44 22 6.97 21.58 6.97 21C5.89 21 5 20.13 5 19V8C5 6.88 5.89 6 6.97 6H9V3C9 2.42 9.46 2 10 2H14C14.54 2 15 2.42 15 3V6M10.5 3.5V6H13.5V3.5M17.03 19V8H6.97V19" /></svg>
